X:1
T:Ein feste Burg ist unser Gott (2vv,CLII)
T:Michael Praetorius
T:Ein feste Burg ist unser Gott (2vv,CLII)
C:Michael Praetorius
%%score [ 1 2 ]
L:1/8
Q:1/4=144
M:4/2
K:C
V:1 treble-8 nm="Tenor" snm="T"
V:2 bass nm="Bass" snm="B"
V:1
 z16 | z4 c4 c4 c4 | G8 A4 c4- | c2 B2 A2 A2 G4 c4- | c4 B4 A8 | G6 G2 A4 F4 | %6
w: |Ein fes- te|Burg ist un-|* * * ser Gott, ein|_ gu- te|Wehr und Waf- fen,|
 z2 c2 B2 A2 G4 A2 F2- | F2 E2 D4 C8 | z2 c2 c2 c2 G2 A2 B2 B2 | c3 B A2 A2 G8 | %10
w: ein gu- te Wehr und Waf-|* * * fen.|Er hilft uns frei _ _ aus|al- * * ler Not,|
 z2 d2 d2 d2 A4 z2 A2 | A2 A2 E6 F2 G4- | G4 F4 E4 E4 | D4 z2 F2 E4 D4 | C8 c8 | B8 A8 | G8 z4 c4 | %17
w: er hilft uns frei, er|hilft uns frei aus al-|* * * ler|Not, die uns jetzt|hat, die|uns jetzt|hat, die|
 B4 A2 G2 A2 F4 E2 | D4 C4 z4 c4 | B4 A4 G4 A2 F2- | F2 E2 D4 C2 G2 c4- | c4 B4 c4 z2 C2 | %22
w: uns jetzt hat be- trof- *|* fen, die|uns jetzt hat be- trof-|* * * fen, be- trof-|* * fen. Der|
 E6 F2 G6 A2 | B4 c4 d4 B4 | A8 z2 G2 B3 c | d6 G2 B3 c d2 e2- | ed d4 ^c2 d4 z2 D2 | %27
w: al- * * *|* te bö- se|Feind, der al- te|bös, der al- * te bö-|* * * * Feind mit|
 G4 A4 B2 c4 B2 | c4 B4 A4 G4 | z2 C2 G4 A4 B4 | c4 z2 B2 c2 B2 A4 | G2 FG A6 A2 A4- | %32
w: Ernst ers jetzt meint. Groß|Macht und viel List,|mit Ernst ers jetzt|meint. Groß Macht und viel|List, _ _ _ sein grau-|
 A2 G2 A3 G F4 F4 | E6 e2 e4 d4 | e3 d c2 c2 B4 z2 c2 | B4 A4 G4 A2 F2- | F2 E2 D4 C8 | z4 c4 B8 | %38
w: * sam Rüs- * * tung|ist, sein grau- sam|Rüs- * * tung ist. Auf|Erdn ist nicht seins- glei-|* * * chen,|auf Erdn|
 A8 G8 | A12 F4- | F4 E4 D8 | C8 z4 c4 | B4 A4 d4 c4 | A2 B2 c2 A2 d2 c2 c4- | c4 B2 A2 B8 | c16 |] %46
w: ist nicht|seins- glei-||chen, auf|Erdn ist nicht seins-|glei- * * * * * *||chen.|
V:2
 F,8 F,4 F,4 | C,8 E,4 F,4- | F,4 E,4 D,2 D,2 C,4 | z2 E,2 F,8 E,4 | D,4 D,4 C,4 F,4- | %5
w: Ein fes- te|Burg ist un-|* * * ser Gott,|ist un- *|* ser Gott, ein|
 F,4 E,4 D,8 | C,4 D,4 _B,,4 A,,4 | G,,4 G,,4 z2 G,2 G,2 G,2 | C,D, E,2 F,4 E,4 D,4 | %9
w: _ gu- te|Wehr und Waf- *|* fen. Er hilft uns|frei _ _ aus al- ler|
 C,2 F,2 F,2 F,2 C,3 C, C,2 C,2 | G,,6 D,2 D,2 D,2 A,,4 | D,4 C,8 B,,4 | A,,4 A,,4 A,,4 z2 C,2 | %13
w: Not, er hilft uns frei, er hilft uns|frei, er hilft uns frei|aus al- *|* ler Not, die|
 B,,4 A,,4 G,,8 | A,,4 F,,2 G,,2 A,,2 B,,2 C,2 D,2 | E,2 F,2 G,8 ^F,4 | G,4 z2 C,2 B,,4 A,,4 | %17
w: uns jetzt hat|be- trof- * * * * *||fen, die uns jetzt|
 G,,2 G,2 F,2 E,2 D,4 C,4 | z4 C4 B,4 A,4 | G,4 z2 C2 B,4 A,4 | G,4 A,2 F,4 E,4 D,C, | D,8 C,8 | %22
w: hat be- trof- * * fen,|die uns jetzt|hat, die uns jetzt|hat be- trof- * * *|* fen.|
 z4 C,4 E,6 F,2 | G,4 A,6 G,2 G,4- | G,4 ^F,4 G,4 z2 G,,2 | B,,3 C, D,2 E,3 D, D,4 ^C,2 | %26
w: Der al- *|te bö- * *|* se Feind, der|al- * te bö- * * se|
 D,4 z2 A,2 G,4 A,4 | B,4 C4 z2 C,2 G,4 | A,4 B,4 C4 z2 B,2 | C4 B,4 A,4 G,4 | %30
w: Feind, mit Ernst ers|jetzt meint, mit Ernst|ers jetzt meint. Groß|Macht und viel List,|
 z2 A,2 A,2 G,2 A,3 G, F,2 F,2 | E,4 z2 D,2 D,2 C,2 D,3 C, | B,,2 B,,2 A,,4 z2 A,2 A,4- | %33
w: sein grau- sam Rüs- * * tung|ist, sein grau- sam Rüs- *|* tung ist, sein grau-|
 A,4 G,4 A,3 G, F,2 F,2 | E,16 | z4 F,4 E,4 D,4 | C,4 z2 F,2 E,2 D,2 C,2 E,2 | %37
w: * sam Rüs- * * tung|ist.|Auf Erdn ist|nicht, auf Erdn ist nicht seins-|
 C,2 B,,2 A,,4 G,,4 z2 G,2 | F,2 E,2 D,2 F,2 E,2 D,2 C,4- | C,2 D,2 C,2 B,,2 A,,4 D,4- | %40
w: glei- * * chen, auf|Erdn ist nicht, auf Erdn ist nicht,|_ auf Erdn ist nicht seins-|
 D,2 C,2 C,8 B,,4 | C,4 z2 G,2 F,4 E,4 | D,12 A,4 | F,12 E,4 | D,16 | C,16 |] %46
w: * * glei- *|chen, auf Erdn ist|nicht seins-|glei- *||chen.|

